X:1
T:Fair Lillies Highland Fling
M:C|
L:1/8
R:Fling
B:A.S. Bowman – “J.W. Pepper Collection of Five Hundred Reels, Jigs,
B:etc.” (Phila., 1908, No. 128, p. 28)
Z:AK/Fiddler’s Companion
K:Bb
d>f|(g<b) f>d B>cd>B|G>BF>B c2 d>f|(g<b) f>d (e<g) G>B|A>Bc>d B2 d>f|
(g<b) f>d B>cd>B|G>BF>B c2 G>=B|c>de>g G>=Bc.e|(d<f) d>c B2:|
|:A>G|F>GA>B c>eA>c|B>cd>e f2 =B>A|G>A=B>c d>fB>d|c>de>f g2 (a>g)|
a>ge>c G2 (g>f)|g>fd>B F2 (G<B)|(d<f) (g>b) f>gf>d|e>cA>c B2:|]

